dist/map-icon.5f12b7b9.svg

<svg width="9" height="14" viewBox="0 0 9 14" fill="none" xmlns="http://www.w3.org/2000/svg">
<path d="M4.34201 0.664185C1.94784 0.664185 0 2.61481 0 5.0124C0 8.02591 4.34628 13.1736 4.34628 13.1736C4.34628 13.1736 8.68402 7.87771 8.68402 5.0124C8.68402 2.61481 6.73625 0.664185 4.34201 0.664185ZM5.65209 6.28555C5.29085 6.64723 4.81647 6.82811 4.34201 6.82811C3.86763 6.82811 3.3931 6.64723 3.03201 6.28555C2.30961 5.5622 2.30961 4.38517 3.03201 3.66174C3.38181 3.31129 3.84712 3.11827 4.34201 3.11827C4.8369 3.11827 5.30213 3.31136 5.65209 3.66174C6.37448 4.38517 6.37448 5.5622 5.65209 6.28555Z" fill="#2C4CBC"/>
</svg>

<svg xmlns="http://www.w3.org/2000/svg" width="9" height="14" fill="none" xmlns:v="https://vecta.io/nano"><path d="M4.342.664A4.35 4.35 0 0 0 0 5.012c0 3.014 4.346 8.161 4.346 8.161s4.338-5.296 4.338-8.161A4.35 4.35 0 0 0 4.342.664zm1.31 5.621c-.361.362-.836.543-1.31.543s-.949-.181-1.31-.543a1.86 1.86 0 0 1 0-2.624 1.84 1.84 0 0 1 1.31-.543 1.84 1.84 0 0 1 1.31.543 1.86 1.86 0 0 1 0 2.624z" fill="#2c4cbc"/></svg>
